findly-builder/apps/searchassist/src/assets/icons/document.svg

<svg width="10" height="12" viewBox="0 0 10 12" fill="none" xmlns="http://www.w3.org/2000/svg">
<path d="M1.5 0C0.675781 0 0 0.675781 0 1.5V10.5C0 11.3242 0.675781 12 1.5 12H8.5C9.32422 12 10 11.3242 10 10.5V3.50008C10 3.36747 9.94732 3.24029 9.85355 3.14652L6.85348 0.146446C6.75971 0.052678 6.63253 0 6.49992 0H1.5ZM1.5 1H6V3C6 3.55228 6.44772 4 7 4H9V10.5C9 10.7812 8.78125 11 8.5 11H1.5C1.21875 11 1 10.7812 1 10.5V1.5C1 1.21875 1.21875 1 1.5 1ZM7 1.70703L8.29297 3H7V1.70703ZM3.5 6C3.22386 6 3 6.22386 3 6.5C3 6.77614 3.22386 7 3.5 7H6.5C6.77614 7 7 6.77614 7 6.5C7 6.22386 6.77614 6 6.5 6H3.5ZM3.5 8C3.22386 8 3 8.22386 3 8.5C3 8.77614 3.22386 9 3.5 9H5.5C5.77614 9 6 8.77614 6 8.5C6 8.22386 5.77614 8 5.5 8H3.5Z" fill="#979797"/>
</svg>

<svg width="10" height="12" fill="none" xmlns="http://www.w3.org/2000/svg"><path d="M1.5 0C.676 0 0 .676 0 1.5v9c0 .824.676 1.5 1.5 1.5h7c.824 0 1.5-.676 1.5-1.5v-7a.5.5 0 0 0-.146-.353l-3-3A.5.5 0 0 0 6.5 0h-5Zm0 1H6v2a1 1 0 0 0 1 1h2v6.5c0 .281-.219.5-.5.5h-7a.494.494 0 0 1-.5-.5v-9c0-.281.219-.5.5-.5Zm5.5.707L8.293 3H7V1.707ZM3.5 6a.5.5 0 0 0 0 1h3a.5.5 0 0 0 0-1h-3Zm0 2a.5.5 0 0 0 0 1h2a.5.5 0 0 0 0-1h-2Z" fill="#979797"/></svg>
